T: Courtney's Favourite
M: 6/8
L: 1/8
K: Edor
|:BEE BEE|BAc dAF|BEE BEE|A2 G FDE| BEE cEE |dEE cEE |1BAc dcB |ABG FED:|2Bec dcB|A2 G FGE|
|:DFA ~d3 |BAc dAF |DFA dcd |BAG FED |DFA ABd| Bee efg| fed e2d  |BAG FED:|
